!!!Genre:	Gas-nign
!!!Mode:	Freygish
!!!Edition:	2015
!!!Listening/dance:	listening
!!!Free rhythm?:	No
!!!Secondary Modes:	20-27
!!!:	*F:
!!!One_Mode:	no
**kern
*I"P1
*clefG2
*k[b-e-a-]
*G:frey
*M2/4
*>A
=1
4g
16ee-LL
16ddJ
8ccJ
=2
4dd
(16ccLL
16bnJ)
8a-J
=3
4bn
16a-LL
16gJ
8fJ
=4
2g
=5
8gL
8a-J
4bn
=6
8ccL
8bnXJ
16ccLL
16bnJ
8a-J
=7
(16a-LL
16ccJJ
4bn)
16a-LL
16gJJ
=8
(8gL
8ggJ)
4ff
=9
4ee-
8ddtL
8ccJ
=10
8ccL
8ffJ
4ee-
=11
4.dd
8cc
=12
8bnL
8cc
8dd
8ccJ
=13
8ddL
8cc
8bn
8a-J
=14
8bntL
8a-
8g
8fJ
=15
8gL
(8qbnX/
8a-J)
4f
=16
8bnL
8cc
8dd
8ccJ
=17
(8qee-/
8ddL)
8cc
8bn
8a-J
=18
2g
=19
2gg
*>bM
*F:
=20:|!|:
*>B
*k[b-]
*F:
8fL
8aJ
4cc
=21
8.b-L
16aJk
16b-LL
16aJ
8gJ
=22
8gL
8b-J
[4a
=23
4a]
4c
=24
8fL
8aJ
4cc
=25
8.b-L
16aJk
16b-LL
16aJ
8gJ
=26
8gL
(8qb-/
8aJ)
[4f
=27
4f]
4f
*>eM
*G:frey
=28||
*>C
*k[b-e-a-]
8fL
8bnJ
4dd
=29
8ccL
8bnJ
16ccLL
16bJ
8a-J
=30
8a-L
8ccJ
[4bn
=31
8bL]
8a-J
8gL
8fJ
=32
8gL
8a-J
4bn
=33
8ccL
8bnJ
16ccLL
16bJ
8a-J
=34
2g
=35
4.g
8c
=36:|!
4.g
8bn
=37!|:
*>D
[2cc
=38
4cc]
4bn
=39
[2cc
=40
4cc]
4bn
=41
4dd
4cc
=42
4bn
(16a-LL
16gJ
8a-J
=43
[2g)
=44
4g]
4bn
=45
4dd
4cc
=46
4bn
16a-LL
16gJ
8a-J
=47
(16.bnLL
32ccJk)
8bJ
(16.a-LL
32bJk)
8a-J
=48
(16.gLL
32a-Jk)
8gJ
4f
=49
8gL
8a-J
[4bn
=50
8bL]
8a-J
(16ccLL
16bnJ
8a-J
=51
4g)
4cc
=52
(16ccLL
16bnJ
8a-J)
(16a-LL
16gJ
8fJ)
=53
(16a-LL
16bnJ
8a-J
4g)
=54
2f
=55
(16a-LL
16bnJ
8a-J)
4g
=56
2f
=57
8gL
8a-J
[4bn
=58
8bL]
8a-J
16ccLL
16bnJ
8a-J
=59
(4.g
8gg)
=60
4.g
8c
=61:|!
2g
=62
2G
==
*-
